X: 46
T: Missa Ma maistresse / Kyrie
N: Derived from Ock1009a-Missa_Ma_maistresse-Kyrie.krn
C: Johannes Ockeghem
%%abc-version 2.0
%%abcx-abcm2ps-target-version 5.9.1 (29 Sep 2008)
%%abc-creator hum2abc beta
%%abcx-conversion-date 2019/02/17 07:26:15
%%abc-edited-by Jesse Rodin
%%abc-edited-by Chris Gage 06-11-2012
%%abcx-initial-encoding-date 2012/08/15/
%%humdrum-veritas 3281761795
%%humdrum-veritas-data 3311308013
%%linebreak <none>
%%barnumbers 0
L: 1/4
M: 3/1
Q: 1/2=120
%%staves [1 2 3 4]
V: 1 clef=treble
V: 2 clef=treble-8
V: 3 clef=treble-8
V: 4 clef=bass
K: F
[V:1] c4A2d3c/B/A2 | 
[V:2] f6d2d4 | 
[V:3] z12 | 
[V:4] z12 | 
[V:1] G2B4A2G4 | 
[V:2] g3fedf4e2 | 
[V:3] z12 | 
[V:4] z12 | 
[V:1] A8F4 | 
[V:2] f6edc4 | 
[V:3] c8A4 | 
[V:4] F,12 | 
[V:1] A4G8 | 
[V:2] f4d6c2 | 
[V:3] d6B2B2G2- | 
[V:4] D,4G,6E,2 | 
[V:1] z2c4A2B4 | 
[V:2] B2c3Ff2e2d2 | 
[V:3] G2A4c2B2d2- | 
[V:4] E,2C,2F,4G,4 | 
[V:1] A4c4B3G | 
[V:2] f4z4z4 | 
[V:3] dcA4F2G4 | 
[V:4] F,4C,2F,4E,2 | 
[V:1] A8z4 | 
[V:2] f3ec4d4 | 
[V:3] F4E2F4G2 | 
[V:4] D,3C,A,,4B,,3A,, | 
[V:1] z4z4D4 | 
[V:2] c3BG2c4=B2 | 
[V:3] A2G2E2C2D4 | 
[V:4] F,,2C,4A,,2G,,4 | 
[V:1] E6C2C3D | 
[V:2] c8A4 | 
[V:3] C4E2F2z2F2 | 
[V:4] z4z4F,,2A,,2 | 
[V:1] E4F4E2G2 | 
[V:2] z2G2A2B2z2B2- | 
[V:3] G2E2D4C2E2 | 
[V:4] G,,2C,4B,,2C,2G,,2- | 
[V:1] z2G2A2c2B2c2 | 
[V:2] Bcd_ec3Ad2c2 | 
[V:3] D2G4^F2G2A2 | 
[V:4] G,,A,,B,,C,A,,4G,,2C,2 | 
[V:1] d2c2zF2GA3G | 
[V:2] z2e2f2d2e4 | 
[V:3] G2c3BB2Ac2B | 
[V:4] B,,2C,2D,4z4 | 
[V:1] E2F2G2A2B4 | 
[V:2] c2d2c2f4e2 | 
[V:3] G2A2G2c4B2 | 
[V:4] C,2F,2E,2F,2G,4 | 
[V:1] A12 ||  
[V:2] f12 ||  
[V:3] c12 ||  
[V:4] F,12 ||  
[V:1]  [K:F] [K:clef=treble][M:3/1]z12 | 
[V:2]  [K:F] [K:clef=treble-8][M:3/1]c2e2d2g4f2 | 
[V:3]  [K:F] [K:clef=treble-8][M:3/1]c4B2G2A3G/F/ | 
[V:4]  [K:F] [K:clef=bass][M:3/1]z12 | 
[V:1] z12 | 
[V:2] g3ef2e2g4 | 
[V:3] ECG2A2c4B2 | 
[V:4] z12 | 
[V:1] z12 | 
[V:2] c2f4e2d4 | 
[V:3] A4d2c2B2d2- | 
[V:4] z12 | 
[V:1] z12 | 
[V:2] f2e2d2e2c2g2- | 
[V:3] d2c2B2c4B2 | 
[V:4] z12 | 
[V:1] z4z4c4 | 
[V:2] g2f4e2f4 | 
[V:3] c2F2G4z4 | 
[V:4] z4z4F,2A,2 | 
[V:1] B2G2A2GFE2F2 | 
[V:2] g2e2d4c3d | 
[V:3] z4z4A4 | 
[V:4] G,2C4B,2C3B, | 
[V:1] G2c2B2d4c2- | 
[V:2] e2f2g4g4- | 
[V:3] B2c2d2B3G2c- | 
[V:4] G,2A,2G,2z2G,2E,2 | 
[V:1] c2=B2c8 | 
[V:2] g4e2e3dc2 | 
[V:3] ced2cBAGAG2^F | 
[V:4] C,2G,2z2C,3B,,A,,2 | 
[V:1] z4d4c2B2 | 
[V:2] B2d2z2d2efg2 | 
[V:3] G4F2G2z2G2 | 
[V:4] G,,2B,,3A,,B,,2A,,2G,,2 | 
[V:1] c3BA2G3AB2 | 
[V:2] z2c4d2e2d2 | 
[V:3] E2F3ED2C2G2- | 
[V:4] A,,3G,,A,,2B,,2C,2G,,2 | 
[V:1] c2F2G2A4F2 | 
[V:2] e2c3de2d4 | 
[V:3] G2A2G2c4=B2 | 
[V:4] C,3A,,B,,2C,2D,4 | 
[V:1] E12 ||  
[V:2] G12 ||  
[V:3] c12 ||  
[V:4] C,12 ||  
[V:1]  [K:F] [K:clef=treble][M:3/1]E6F2G4 | 
[V:2]  [K:F] [K:clef=treble-8][M:3/1]c6d2e4 | 
[V:3]  [K:F] [K:clef=treble-8][M:3/1]c6BAG2c2 | 
[V:4]  [K:F] [K:clef=bass][M:3/1]C,12 | 
[V:1] A2G2A2c2B3G | 
[V:2] f2d2e4d2B2 | 
[V:3] A2B2c2A2B2G2 | 
[V:4] z4z2C,2D,2E,2 | 
[V:1] A4z2F2G2A2 | 
[V:2] A2c4d2z2e2 | 
[V:3] F2z2A2B4c2 | 
[V:4] F,6D,2_E,2C,2 | 
[V:1] B4c2d4B2 | 
[V:2] f4e2d2f2e2 | 
[V:3] d4c2B4G2 | 
[V:4] B,,4z2B,,2D,2E,2 | 
[V:1] A6GFE2D2 | 
[V:2] c4z4A4 | 
[V:3] A3Bc6A2 | 
[V:4] F,3G,A,6D,2 | 
[V:1] F4G2A4F2 | 
[V:2] d6f4d2 | 
[V:3] A4B2A2d4 | 
[V:4] D,4z2D,2F,2G,2 | 
[V:1] E4z4z4 | 
[V:2] c3de2d4g2 | 
[V:3] z4A4B4 | 
[V:4] A,6F,2G,2E,2 | 
[V:1] z12 | 
[V:2] f2e4d4^c2 | 
[V:3] B2c4A4G2 | 
[V:4] D,2A,4F,2E,4 | 
[V:1] z12 | 
[V:2] d4z4z4 | 
[V:3] A2B4A4B2 | 
[V:4] D,6C,B,,A,,2G,,2 | 
[V:1] z12 | 
[V:2] z12 | 
[V:3] A2B4A4G2 | 
[V:4] D,6C,2A,,2B,,2 | 
[V:1] z12 | 
[V:2] z12 | 
[V:3] F2G3FF4E2 | 
[V:4] D,2C,2A,,2B,,2G,,4 | 
[V:1] A3G/F/E8 | 
[V:2] c6B2c4 | 
[V:3] F3E/D/C2G2A2c2- | 
[V:4] F,,4z4z4 | 
[V:1] D4C4z2c2- | 
[V:2] f4e2f2g2c2- | 
[V:3] c2=B2c2F2E2F2 | 
[V:4] z4A,4G,2F,2- | 
[V:1] cB/A/G2A4z2c2- | 
[V:2] cde2A2c3Ff2 | 
[V:3] G4z4F4 | 
[V:4] F,2E,2F,3G,A,4 | 
[V:1] c2A2B2d4c2- | 
[V:2] e2f2g3fd2f2- | 
[V:3] c4d4G2A2 | 
[V:4] z2A,2G,2B,4A,2- | 
[V:1] c2B4A2F2G2- | 
[V:2] f2g3/f/d2z2c2d2 | 
[V:3] c2d2B2c3AB2- | 
[V:4] A,2G,4F,2A,2G,2 | 
[V:1] G2A4F4E2 | 
[V:2] ecc4B2c4 | 
[V:3] BGc2F4G4 | 
[V:4] E,2F,2D,4C,4 | 
[V:1] F12 |]  
[V:2] c2d4c2c4 |]  
[V:3] F12 |]  
[V:4] F,,12 |]  



